svgs/regular/send-backward.svg

<svg xmlns="http://www.w3.org/2000/svg" viewBox="0 0 512 512"><!--! Font Awesome Pro 6.6.0 by @fontawesome - https://fontawesome.com License - https://fontawesome.com/license (Commercial License) Copyright 2024 Fonticons, Inc. --><path d="M64 0C28.7 0 0 28.7 0 64L0 288c0 35.3 28.7 64 64 64l64 0 0-128c0-53 43-96 96-96l128 0 0-64c0-35.3-28.7-64-64-64L64 0zM224 208l224 0c8.8 0 16 7.2 16 16l0 224c0 8.8-7.2 16-16 16l-224 0c-8.8 0-16-7.2-16-16l0-224c0-8.8 7.2-16 16-16zm-64 16l0 224c0 35.3 28.7 64 64 64l224 0c35.3 0 64-28.7 64-64l0-224c0-35.3-28.7-64-64-64l-224 0c-35.3 0-64 28.7-64 64z"/></svg>

<svg xmlns="http://www.w3.org/2000/svg" viewBox="0 0 512 512"><!--! Font Awesome Pro 6.5.2 by @fontawesome - https://fontawesome.com License - https://fontawesome.com/license (Commercial License) Copyright 2024 Fonticons, Inc. --><path d="M64 0C28.7 0 0 28.7 0 64V288c0 35.3 28.7 64 64 64h64V224c0-53 43-96 96-96H352V64c0-35.3-28.7-64-64-64H64zM224 208H448c8.8 0 16 7.2 16 16V448c0 8.8-7.2 16-16 16H224c-8.8 0-16-7.2-16-16V224c0-8.8 7.2-16 16-16zm-64 16V448c0 35.3 28.7 64 64 64H448c35.3 0 64-28.7 64-64V224c0-35.3-28.7-64-64-64H224c-35.3 0-64 28.7-64 64z"/></svg>
